Sources/FrostedUI/Resources/Icons.xcassets/emailOut20.imageset/email-out-20.svg

<svg
  width="20"
  height="20"
  viewBox="0 0 20 20"
  fill="none"
  xmlns="http://www.w3.org/2000/svg"
  data-fui-icon="true"
>
  <path
    d="M17.25 8.25V5.575C17.25 4.29094 16.2091 3.25 14.925 3.25H3.075C1.79094 3.25 0.75 4.29094 0.75 5.575V13.925C0.75 15.2091 1.79094 16.25 3.075 16.25H13.75"
    stroke="currentColor"
    stroke-width="1.5"
    stroke-linecap="round"
    stroke-linejoin="round"
  />
  <path
    d="M.75 6L7.18547 10.2093C7.72488 10.5621 8.35545 10.75 9 10.75V10.75C9.64455 10.75 10.2751 10.5621 10.8145 10.2093L17.25 6M16.4375 10.625L19.25 13.25 16.4375 15.875M12 13.25H19.25"
    stroke="currentColor"
    stroke-width="1.5"
    stroke-linecap="round"
    stroke-linejoin="round"
  />
</svg>

<svg xmlns="http://www.w3.org/2000/svg" width="20" height="20" fill="none" data-fui-icon="true" viewBox="0 0 20 20"><path stroke="currentColor" stroke-linecap="round" stroke-linejoin="round" stroke-width="1.5" d="M17.25 8.25V5.575a2.325 2.325 0 0 0-2.325-2.325H3.075A2.325 2.325 0 0 0 .75 5.575v8.35a2.325 2.325 0 0 0 2.325 2.325H13.75"/><path stroke="currentColor" stroke-linecap="round" stroke-linejoin="round" stroke-width="1.5" d="m.75 6 6.435 4.21c.54.352 1.17.54 1.815.54v0c.645 0 1.275-.188 1.815-.54L17.25 6m-.812 4.625 2.812 2.625-2.812 2.625M12 13.25h7.25"/></svg>
